X:1
T:Title
%%score { ( 1 3 ) | ( 2 4 ) }
L:1/8
M:4/4
K:Eb
V:1 treble nm="Grand Piano"
V:3 treble 
V:2 bass 
V:4 bass 
V:1
 z4 z2[Q:1/4=100] G>A | B2 c2 B2 G2 | B6 z2 | [B,E]4 z2[K:treble] [DF]2 |[M:3/4] E6 |[M:1/4] G>A | %6
[M:4/4] B2 c2 B2 G2 | B6 z2 | z z/ D/ D>D E2 [CEc][Fd] |[M:3/4] B2- [DB-][EB-] [FB]2 | %10
[M:1/4] [B,GB]>[B,GB] |[M:4/4] [Ge]2 [GB]2 G2 c2 | B6 B>B | [DB]2 [DF]2 [GB]2 [FA]2 | %14
 [EG]6 [Ge]>[Ge] | [Ge]2 B2 c2 e2 | [Ge]6 z2 | E6[K:treble] [DF]2 |[M:3/4] [EG]6 |] %19
V:2
 z4 z2 E,>F, | G,2 A,2 G,2 E,2 | G,6 z2 | E,>E, E,>E, G,,2 B,,>B,, | %4
[M:3/4] [E,G,B,]2 [E,_G,]2 [E,=G,]2 |[M:1/4] E,>F, |[M:4/4] G,2 A,2 G,2 E,2 | G,6 z2 | %8
 F,->[F,-B,] [F,-B,]>[F,-B,] [F,A,]2 z C |[M:3/4] z2 F,G, A,2 |[M:1/4] E,>E, | %11
[M:4/4] [E,B,]2 [E,E]2 [E,B,E]2 [E,A,E]2 | [E,G,E]6 [E,G,E]>[E,G,E] | %13
 [B,,F,]2 [B,,B,]2 [B,,B,]2 [B,,B,]2 | [E,B,]6 [E,B,]>[E,B,] | %15
 [E,B,]2[K:treble] [G,E]2 [A,EA]2 [A,CA]2 | [E,B,]6 z2 | [E,G,]>E, E,>E, C,2 B,,>B,, | %18
[M:3/4] E,2 E,2 E,2 |] %19
V:3
 x8 | x8 | x8 | G,>G, G,>G, [B,E]2[K:treble] A,>A, |[M:3/4] z2 =A,2 B,2 |[M:1/4] x2 |[M:4/4] x8 | %7
 x8 | F6 z2 |[M:3/4] [B,D]2 z2 z2 |[M:1/4] x2 |[M:4/4] x8 | x8 | x8 | x8 | x8 | x8 | %17
 z z/ G,/ G,>G, =A,2[K:treble] B,>B, |[M:3/4] B,2 B,2 B,2 |] %19
V:4
 x8 | x8 | x8 | x8 |[M:3/4] x6 |[M:1/4] x2 |[M:4/4] x8 | x8 | [B,D]2 z2 z2 [G,,A,]2 |[M:3/4] B,,6 | %10
[M:1/4] x2 |[M:4/4] x8 | x8 | x8 | x8 | x2[K:treble] x6 | x8 | x8 |[M:3/4] x6 |] %19

